X:1
T:Title
%%score { ( 1 4 ) | ( 2 3 ) }
L:1/8
M:4/4
K:G
V:1 treble nm="Grand Piano"
V:4 treble 
V:2 treble 
V:3 treble 
V:1
 z4 z2[Q:1/4=110] D2 | G2 G2 G2 B2 | d2 e2 d2 G>A | B4 A2 G2 |[M:3/4] [FA]2 [Fd]4 |[M:1/4] D2 | %6
[M:4/4] G2 G2 G2 B2 | d2 e2 d2 G>A | [GB]4 [GB]2 [GB]2 |[M:7/8] A- A3 G3 |[M:1/4] D>D | %11
[M:4/4] G2 GG G2 E>D | G4 G2 G>A | [DGB]4 [CFA]2 [B,EG]>[DFA] | [DGB]4 [CFA]2 D>D | G2 GG G2 E>D | %16
 G4 G2 B>c | B2 z2 z4 |[M:3/4] [B,DG]6 |] %19
V:2
 z4 z2 [G,B,]2 | [G,B,D]2 [G,B,D]2 [G,B,D]2 [G,DG]2 | [G,B,G]2 [G,CG]2 [G,B,G]2 [G,B,]>[G,CG] | %3
 [G,DG]4 [G,CG]2[K:bass] [G,B,]2 |[M:3/4] [D,D]2 [D,D]4 |[M:1/4] [G,B,]2 | %6
[M:4/4] [G,B,D]2[K:treble] [G,B,D]2 [G,B,D]2 [G,DG]2 | [G,B,G]2 [G,CG]2 [G,B,G]2 [G,B,]>[G,CG] | %8
 [D,D]4 [D,D]2 [D,D]2 |[M:7/8] [D,CD]- [D,CD]3 [G,B,D]3 |[M:1/4] [G,B,]>[G,B,] | %11
[M:4/4] [G,B,D]2 [G,B,D][G,B,D] [G,B,D]2 [G,C]>[G,B,] | [G,B,D]4 [G,B,D]2 [G,B,]>[G,CG] | %13
 G,,2 B,,2 D,2 E,>D, | G,,2 B,,2 D,2 [G,B,]>[G,B,] | %15
 [G,B,D]2 [G,B,D][G,B,D] [G,B,D]2 [G,C]>[G,B,] | z4 z2 G2 | G,2 B,,2 z2 z[K:treble] B | %18
[M:3/4] G,6 |] %19
V:3
 x8 | x8 | x8 | x6[K:bass] x2 |[M:3/4] x6 |[M:1/4] x2 |[M:4/4] x2[K:treble] x6 | x8 | x8 | %9
[M:7/8] x7 |[M:1/4] x2 |[M:4/4] x8 | x8 | x8 | x8 | x8 | [G,B,D]4 [G,B,D]2 [G,D]->[G,DA] | %17
 z4 D,4[K:treble] |[M:3/4] x6 |] %19
V:4
 x8 | x8 | x8 | x8 |[M:3/4] x6 |[M:1/4] x2 |[M:4/4] x8 | x8 | x8 |[M:7/8] x7 |[M:1/4] x2 | %11
[M:4/4] x8 | x8 | x8 | x8 | x8 | x8 | [Dd]2- [DGd]2 [CFA]4 |[M:3/4] x6 |] %19

